static/images/past-sponsors/ferrous-systems.svg

<svg fill="none" height="61" viewBox="0 0 302 61" width="302" xmlns="http://www.w3.org/2000/svg" xmlns:xlink="http://www.w3.org/1999/xlink"><mask id="a" height="23" maskUnits="userSpaceOnUse" width="34" x="27" y="3"><path d="m27 3.53613h33.9898v22.43907h-33.9898z" fill="#fff"/></mask><path d="m36.1304 26.9689s1.9555 0 1.9555 1.9555v7.1749s0 1.9555-1.9555 1.9555h-7.1749s-1.9555 0-1.9555-1.9555v-7.1749s0-1.9555 1.9555-1.9555z" fill="#000"/><path d="m58.3018 38.0548s1.9555 0 1.9555 1.9144v17.3352s0 1.9145-1.9555 1.9145h-7.1749s-1.9555 0-1.9555-1.9145v-17.3352s0-1.9144 1.9555-1.9144z" fill="#000"/><g mask="url(#a)"><path d="m60.9898 12.7775v-7.26288c0-1.97898-1.9985-1.97898-1.9985-1.97898h-7.3323-22.6605c-1.9985 0-1.9985 1.97898-1.9985 1.97898v7.26288c0 1.9789 1.9985 1.9789 1.9985 1.9789h20.662v9.2399c0 1.979 1.9985 1.979 1.9985 1.979h7.3323c1.9985 0 1.9985-1.979 1.9985-1.979z" fill="#000"/></g><path d="m93.8566 19.9142h-1.7817c-3.116 0-4.6173 1.6112-4.6173 4.6151v1.8933l-2.0045.2781v2.5828h2.0045v9.8182h3.3645v-9.8182h3.2851v-2.8609h-3.2851v-1.8655c0-1.1126.3341-1.7821 1.4477-1.7821h1.5868zm8.2144 16.6326c-1.839 0-2.7857-1.0311-2.8692-2.7019h7.6562c.139-.5265.222-1.4999.222-2.1933 0-2.7575-1.473-5.5071-5.371-5.5071-3.925 0-5.8996 3.0277-5.8996 6.6177 0 3.8681 1.8632 6.6455 6.2616 6.6455 2.034 0 3.731-.8603 4.703-1.8338l-1.585-2.1972c-.944.7807-2.086 1.1701-3.118 1.1701zm-2.8414-5.0899c.0835-1.4483.8074-2.6185 2.4794-2.6185 1.197 0 2.257.6974 2.257 2.2013 0 .0834-.028.2503-.055.4172zm14.0594-3.0337v-2.0006h-3.226v12.6791h3.365v-7.9825c.473-.8901 1.336-1.502 2.45-1.502.612 0 1.447.1113 2.032.2503l.25-3.5561c-.417-.1113-.918-.1669-1.447-.1669-1.782 0-2.756 1.1403-3.397 2.2807zm10.495 0v-2.0006h-3.225v12.6791h3.364v-7.9825c.473-.8901 1.336-1.502 2.45-1.502.612 0 1.448.1113 2.032.2503l.251-3.5561c-.418-.1113-.919-.1669-1.448-.1669-1.782 0-2.756 1.1403-3.396 2.2807zm12.53-2.2787c-4.176 0-6.039 2.7774-6.039 6.6455 0 3.7846 1.946 6.6177 5.927 6.6177 4.176 0 6.067-2.7774 6.067-6.6733 0-3.8125-1.946-6.5899-5.955-6.5899zm-.056 10.2354c-1.728 0-2.563-1.1959-2.563-3.6455 0-2.3364.807-3.5622 2.535-3.5622 1.782 0 2.591 1.2258 2.591 3.6178 0 2.3105-.809 3.5899-2.563 3.5899zm20.404-9.9573h-3.366v8.9282c-.501.4729-1.504.9457-2.478.9457-1.7 0-2.285-.8066-2.285-2.3364v-7.5375h-3.394v7.9269c0 3.2801 1.475 5.0304 4.341 5.0304 2.034 0 3.259-.7768 3.927-1.7225v1.4443h3.255zm13.14 1.5834c-.835-.9178-2.28-1.8615-4.786-1.8615-3.842 0-5.206 2.2489-5.206 4.0866 0 1.8357 1.114 3.143 3.339 3.6992l2.201.5285c.863.1967 1.281.6417 1.281 1.198 0 .8344-.808 1.2516-1.951 1.2516-1.587 0-2.673-.8622-3.394-1.641l-1.921 2.0026c.807.9993 2.448 2.1377 5.176 2.1377 4.148 0 5.512-2.0543 5.512-4.0569 0-1.8377-1.086-3.2005-3.617-3.7568l-2.118-.5007c-.807-.1668-1.169-.6119-1.169-1.196 0-.6695.557-1.2257 1.728-1.2257 1.253 0 2.311.5562 3.062 1.3092zm18.625 0c-.835-.9178-2.281-1.8615-4.788-1.8615-3.842 0-5.204 2.2489-5.204 4.0866 0 1.8357 1.113 3.143 3.336 3.6992l2.204.5285c.863.1967 1.28.6417 1.28 1.198 0 .8344-.807 1.2516-1.95 1.2516-1.589 0-2.673-.8622-3.397-1.641l-1.919 2.0026c.808.9993 2.448 2.1377 5.176 2.1377 4.148 0 5.511-2.0543 5.511-4.0569 0-1.8377-1.084-3.2005-3.616-3.7568l-2.117-.5007c-.808-.1668-1.172-.6119-1.172-1.196 0-.6695.559-1.2257 1.728-1.2257 1.255 0 2.313.5562 3.063 1.3092zm5.345-1.5834h-3.786l5.206 12.1248-2.728 6.5621h3.424l7.433-18.6869h-3.619l-2.84 8.2587zm21.073 1.5834c-.834-.9178-2.279-1.8615-4.787-1.8615-3.842 0-5.204 2.2489-5.204 4.0866 0 1.8357 1.114 3.143 3.337 3.6992l2.201.5285c.865.1967 1.283.6417 1.283 1.198 0 .8344-.808 1.2516-1.951 1.2516-1.589 0-2.673-.8622-3.396-1.641l-1.919 2.0026c.807.9993 2.448 2.1377 5.176 2.1377 4.148 0 5.51-2.0543 5.51-4.0569 0-1.8377-1.084-3.2005-3.615-3.7568l-2.118-.5007c-.807-.1668-1.171-.6119-1.171-1.196 0-.6695.559-1.2257 1.728-1.2257 1.255 0 2.313.5562 3.062 1.3092zm7.741 1.2496h2.837v-2.833h-2.837v-3.6158l-3.367.5285v3.0873l-2.31.2781v2.5549h2.31v6.1509c0 2.3065 1.001 4.0012 3.617 4.0012.947 0 2.059-.1669 2.699-.4172l-.056-2.9165c-.473.1391-1.056.2225-1.501.2225-.891 0-1.392-.4172-1.392-1.3629zm11.442 7.2912c-1.84 0-2.786-1.0311-2.87-2.7019h7.656c.139-.5265.223-1.4999.223-2.1933 0-2.7575-1.474-5.5071-5.371-5.5071-3.925 0-5.9 3.0277-5.9 6.6177 0 3.8681 1.863 6.6455 6.262 6.6455 2.034 0 3.73-.8603 4.703-1.8338l-1.585-2.1972c-.945.7807-2.088 1.1701-3.118 1.1701zm-2.842-5.0899c.084-1.4483.808-2.6185 2.48-2.6185 1.197 0 2.257.6974 2.257 2.2013 0 .0834-.028.2503-.056.4172zm10.834 7.6448h3.364v-8.9282c.641-.5007 1.42-.9457 2.48-.9457 1.197 0 1.921.5285 2.34 1.2238v8.6501h3.365v-8.9282c.529-.5007 1.42-.9457 2.563-.9457 1.559 0 2.118.7232 2.118 1.947v7.9269h3.392v-8.205c0-3.0854-1.334-4.7522-4.535-4.7522-2.229 0-3.705.9715-4.401 1.8615-.777-1.0827-1.835-1.8615-3.868-1.8615-1.783 0-2.869.89-3.565 1.7224v-1.4443h-3.253zm32.651-11.0957c-.835-.9178-2.281-1.8615-4.786-1.8615-3.842 0-5.206 2.2489-5.206 4.0866 0 1.8357 1.114 3.143 3.339 3.6992l2.201.5285c.863.1967 1.281.6417 1.281 1.198 0 .8344-.808 1.2516-1.949 1.2516-1.589 0-2.675-.8622-3.397-1.641l-1.92 2.0026c.807.9993 2.447 2.1377 5.176 2.1377 4.148 0 5.512-2.0543 5.512-4.0569 0-1.8377-1.086-3.2005-3.617-3.7568l-2.118-.5007c-.807-.1668-1.169-.6119-1.169-1.196 0-.6695.557-1.2257 1.728-1.2257 1.253 0 2.31.5562 3.062 1.3092z" fill="#000"/></svg>

<svg width="302" height="61" viewBox="0 0 302 61" fill="none" xmlns="http://www.w3.org/2000/svg">
<path d="M36.1304 26.9689C36.1304 26.9689 38.0859 26.9689 38.0859 28.9244V36.0993C38.0859 36.0993 38.0859 38.0548 36.1304 38.0548H28.9555C28.9555 38.0548 27 38.0548 27 36.0993V28.9244C27 28.9244 27 26.9689 28.9555 26.9689H36.1304Z" fill="black"/>
<path d="M58.3018 38.0548C58.3018 38.0548 60.2573 38.0548 60.2573 39.9692V57.3044C60.2573 57.3044 60.2573 59.2189 58.3018 59.2189H51.1269C51.1269 59.2189 49.1714 59.2189 49.1714 57.3044V39.9692C49.1714 39.9692 49.1714 38.0548 51.1269 38.0548H58.3018Z" fill="black"/>
<mask id="mask0_2549_39805" style="mask-type:luminance" maskUnits="userSpaceOnUse" x="27" y="3" width="34" height="23">
<path d="M27 3.53613H60.9898V25.9752H27V3.53613Z" fill="white"/>
</mask>
<g mask="url(#mask0_2549_39805)">
<path d="M60.9898 12.7775V5.51462C60.9898 3.53564 58.9913 3.53564 58.9913 3.53564H51.659H28.9985C27 3.53564 27 5.51462 27 5.51462V12.7775C27 14.7564 28.9985 14.7564 28.9985 14.7564H49.6605V23.9963C49.6605 25.9753 51.659 25.9753 51.659 25.9753H58.9913C60.9898 25.9753 60.9898 23.9963 60.9898 23.9963V12.7775Z" fill="black"/>
</g>
<path d="M93.8566 19.9142H92.0749C88.9589 19.9142 87.4576 21.5254 87.4576 24.5293V26.4226L85.4531 26.7007V29.2835H87.4576V39.1017H90.8221V29.2835H94.1072V26.4226H90.8221V24.5571C90.8221 23.4445 91.1562 22.775 92.2698 22.775H93.8566V19.9142ZM102.071 36.5468C100.232 36.5468 99.2853 35.5157 99.2018 33.8449H106.858C106.997 33.3184 107.08 32.345 107.08 31.6516C107.08 28.8941 105.607 26.1445 101.709 26.1445C97.784 26.1445 95.8094 29.1722 95.8094 32.7622C95.8094 36.6303 97.6726 39.4077 102.071 39.4077C104.105 39.4077 105.802 38.5474 106.774 37.5739L105.189 35.3767C104.245 36.1574 103.103 36.5468 102.071 36.5468ZM99.2296 31.4569C99.3131 30.0086 100.037 28.8384 101.709 28.8384C102.906 28.8384 103.966 29.5358 103.966 31.0397C103.966 31.1231 103.938 31.29 103.911 31.4569H99.2296ZM113.289 28.4232V26.4226H110.063V39.1017H113.428V31.1192C113.901 30.2291 114.764 29.6172 115.878 29.6172C116.49 29.6172 117.325 29.7285 117.91 29.8675L118.16 26.3114C117.743 26.2001 117.242 26.1445 116.713 26.1445C114.931 26.1445 113.957 27.2848 113.316 28.4252L113.289 28.4232ZM123.784 28.4232V26.4226H120.559V39.1017H123.923V31.1192C124.396 30.2291 125.259 29.6172 126.373 29.6172C126.985 29.6172 127.821 29.7285 128.405 29.8675L128.656 26.3114C128.238 26.2001 127.737 26.1445 127.208 26.1445C125.426 26.1445 124.452 27.2848 123.812 28.4252L123.784 28.4232ZM136.314 26.1445C132.138 26.1445 130.275 28.9219 130.275 32.79C130.275 36.5746 132.221 39.4077 136.202 39.4077C140.378 39.4077 142.269 36.6303 142.269 32.7344C142.269 28.9219 140.323 26.1445 136.314 26.1445ZM136.258 36.3799C134.53 36.3799 133.695 35.184 133.695 32.7344C133.695 30.398 134.502 29.1722 136.23 29.1722C138.012 29.1722 138.821 30.398 138.821 32.79C138.821 35.1005 138.012 36.3799 136.258 36.3799ZM156.662 26.4226H153.296V35.3508C152.795 35.8237 151.792 36.2965 150.818 36.2965C149.118 36.2965 148.533 35.4899 148.533 33.9601V26.4226H145.139V34.3495C145.139 37.6296 146.614 39.3799 149.48 39.3799C151.514 39.3799 152.739 38.6031 153.407 37.6574V39.1017H156.662V26.4226ZM169.802 28.006C168.967 27.0882 167.522 26.1445 165.016 26.1445C161.174 26.1445 159.81 28.3934 159.81 30.2311C159.81 32.0668 160.924 33.3741 163.149 33.9303L165.35 34.4588C166.213 34.6555 166.631 35.1005 166.631 35.6568C166.631 36.4912 165.823 36.9084 164.68 36.9084C163.093 36.9084 162.007 36.0462 161.286 35.2674L159.365 37.27C160.172 38.2693 161.813 39.4077 164.541 39.4077C168.689 39.4077 170.053 37.3534 170.053 35.3508C170.053 33.5131 168.967 32.1503 166.436 31.594L164.318 31.0933C163.511 30.9265 163.149 30.4814 163.149 29.8973C163.149 29.2278 163.706 28.6716 164.877 28.6716C166.13 28.6716 167.188 29.2278 167.939 29.9808L169.802 28.006ZM188.427 28.006C187.592 27.0882 186.146 26.1445 183.639 26.1445C179.797 26.1445 178.435 28.3934 178.435 30.2311C178.435 32.0668 179.548 33.3741 181.771 33.9303L183.975 34.4588C184.838 34.6555 185.255 35.1005 185.255 35.6568C185.255 36.4912 184.448 36.9084 183.305 36.9084C181.716 36.9084 180.632 36.0462 179.908 35.2674L177.989 37.27C178.797 38.2693 180.437 39.4077 183.165 39.4077C187.313 39.4077 188.676 37.3534 188.676 35.3508C188.676 33.5131 187.592 32.1503 185.06 31.594L182.943 31.0933C182.135 30.9265 181.771 30.4814 181.771 29.8973C181.771 29.2278 182.33 28.6716 183.499 28.6716C184.754 28.6716 185.812 29.2278 186.562 29.9808L188.427 28.006ZM193.772 26.4226H189.986L195.192 38.5474L192.464 45.1095H195.888L203.321 26.4226H199.702L196.862 34.6813L193.772 26.4226ZM214.845 28.006C214.011 27.0882 212.566 26.1445 210.058 26.1445C206.216 26.1445 204.854 28.3934 204.854 30.2311C204.854 32.0668 205.968 33.3741 208.191 33.9303L210.392 34.4588C211.257 34.6555 211.675 35.1005 211.675 35.6568C211.675 36.4912 210.867 36.9084 209.724 36.9084C208.135 36.9084 207.051 36.0462 206.328 35.2674L204.409 37.27C205.216 38.2693 206.857 39.4077 209.585 39.4077C213.733 39.4077 215.095 37.3534 215.095 35.3508C215.095 33.5131 214.011 32.1503 211.48 31.594L209.362 31.0933C208.555 30.9265 208.191 30.4814 208.191 29.8973C208.191 29.2278 208.75 28.6716 209.919 28.6716C211.174 28.6716 212.232 29.2278 212.981 29.9808L214.845 28.006ZM222.586 29.2556H225.423V26.4226H222.586V22.8068L219.219 23.3353V26.4226L216.909 26.7007V29.2556H219.219V35.4065C219.219 37.713 220.22 39.4077 222.836 39.4077C223.783 39.4077 224.895 39.2408 225.535 38.9905L225.479 36.074C225.006 36.2131 224.423 36.2965 223.978 36.2965C223.087 36.2965 222.586 35.8793 222.586 34.9336V29.2556ZM234.028 36.5468C232.188 36.5468 231.242 35.5157 231.158 33.8449H238.814C238.953 33.3184 239.037 32.345 239.037 31.6516C239.037 28.8941 237.563 26.1445 233.666 26.1445C229.741 26.1445 227.766 29.1722 227.766 32.7622C227.766 36.6303 229.629 39.4077 234.028 39.4077C236.062 39.4077 237.758 38.5474 238.731 37.5739L237.146 35.3767C236.201 36.1574 235.058 36.5468 234.028 36.5468ZM231.186 31.4569C231.27 30.0086 231.994 28.8384 233.666 28.8384C234.863 28.8384 235.923 29.5358 235.923 31.0397C235.923 31.1231 235.895 31.29 235.867 31.4569H231.186ZM242.02 39.1017H245.384V30.1735C246.025 29.6728 246.804 29.2278 247.864 29.2278C249.061 29.2278 249.785 29.7563 250.204 30.4516V39.1017H253.569V30.1735C254.098 29.6728 254.989 29.2278 256.132 29.2278C257.691 29.2278 258.25 29.951 258.25 31.1748V39.1017H261.642V30.8967C261.642 27.8113 260.308 26.1445 257.107 26.1445C254.878 26.1445 253.402 27.116 252.706 28.006C251.929 26.9233 250.871 26.1445 248.838 26.1445C247.055 26.1445 245.969 27.0345 245.273 27.8669V26.4226H242.02V39.1017ZM274.671 28.006C273.836 27.0882 272.39 26.1445 269.885 26.1445C266.043 26.1445 264.679 28.3934 264.679 30.2311C264.679 32.0668 265.793 33.3741 268.018 33.9303L270.219 34.4588C271.082 34.6555 271.5 35.1005 271.5 35.6568C271.5 36.4912 270.692 36.9084 269.551 36.9084C267.962 36.9084 266.876 36.0462 266.154 35.2674L264.234 37.27C265.041 38.2693 266.681 39.4077 269.41 39.4077C273.558 39.4077 274.922 37.3534 274.922 35.3508C274.922 33.5131 273.836 32.1503 271.305 31.594L269.187 31.0933C268.38 30.9265 268.018 30.4814 268.018 29.8973C268.018 29.2278 268.575 28.6716 269.746 28.6716C270.999 28.6716 272.056 29.2278 272.808 29.9808L274.671 28.006Z" fill="black"/>
</svg>
